X:109
T: ICH SCHIESS DEN HIRSCH IM GRUENEN FORST
N: B0597
O: Europa, Mitteleuropa, Deutschland; Siebenbuergen ?
R: Staende -, Jaeger - Lied
M: 6/8
L: 1/16
K: D
A2 | A4D2D4D2 | D4D2D4
A,2 | D4E2=F4E2 | D6z4
A2 | A4D2D4D2 | D4D2D4
D2 | =C4=F2A4G2 | =F6z4
A2 | A4D2d4_B2 | A4=F2D4
A2 | A4D2d4_B2 | A8z2
=C2 | =F4G2A4_B2 | d4=c2A4
A2 | A4G2_B4E2 | G3=FED=C4
C2 | =F4G2A4_B2 | d4=c2A4
A2 | A4G2_B4A2 | D8z2

